X:66
T:Bullet Man
C:Ricky Skaggs solo
R:bluegrass
A:California Autumn
L:1/8
Q:1/4=215
M:4/4
K:C
D2 E2 ^F2 | "G"Gd BG "F#"^F^c _BF | "B"B^c B^G ^FG =F^F | "E"AB AF "A"^FD B,2 | 
|"D"zE ^Fd2D EF | "G"Gd BG "F#"^F^c _BF | "B"B^c B^G ^FG =F^F | "E"AB AF ^FE {A,}B,2 | 
|"A"EB, ^C2 B,A,3 | "E"B,^C E^F ^GB2E | ^F^G B2 Ge3 | "A"AB ^ce ^fa fe |
| {B}^c^f ec BA ^FD | "E"ED E^F ^G=G ^GB | {^c}e2 E2 E^F EF | "G"Gd BG "F#"^F^c _BF |
|"B"B^c B^G ^FG =F^F | "E"dB AE "A"^FD B,2 | "D"D2 {E}^F2 (3DFd | 

